fs/weather_moon_off_48_filled.svg

<svg viewBox="0 0 48 48" fill="none" xmlns="http://www.w3.org/2000/svg" height="1em" width="1em">
  <path d="M6.38388 4.61612C5.89573 4.12796 5.10427 4.12796 4.61612 4.61612C4.12796 5.10427 4.12796 5.89573 4.61612 6.38388L20.8366 22.6043C20.7817 22.7138 20.7258 22.8229 20.6688 22.9317C18.5615 26.9543 14.93 29.7665 8.14968 32.1933C7.31535 32.4919 6.99024 33.4998 7.49284 34.2297C8.99611 36.4126 10.9698 38.2438 13.3144 39.5974C20.5124 43.7532 29.3875 42.3725 35.0088 36.7766L41.6161 43.3839C42.1043 43.872 42.8957 43.872 43.3839 43.3839C43.872 42.8957 43.872 42.1043 43.3839 41.6161L6.38388 4.61612ZM31.3144 8.42051C39.8367 13.3409 42.8133 24.1781 38.0509 32.7476L22.5619 17.2586C22.9927 14.4777 22.8059 11.3763 21.9086 7.69988C21.694 6.82065 22.3885 5.98348 23.2922 6.03197C26.0943 6.18231 28.8318 6.98722 31.3144 8.42051Z" fill="#212121"/>
</svg>

<svg viewBox="0 0 48 48" fill="none" xmlns="http://www.w3.org/2000/svg" height="1em" width="1em">
  <path d="M6.384 4.616a1.25 1.25 0 1 0-1.768 1.768l16.22 16.22c-.054.11-.11.219-.167.328-2.108 4.022-5.739 6.835-12.52 9.261a1.35 1.35 0 0 0-.656 2.037 17.933 17.933 0 0 0 5.821 5.367c7.198 4.156 16.073 2.776 21.695-2.82l6.607 6.607a1.25 1.25 0 0 0 1.768-1.768l-37-37Zm24.93 3.805c8.523 4.92 11.5 15.757 6.737 24.327l-15.49-15.49c.432-2.78.245-5.882-.652-9.558a1.35 1.35 0 0 1 1.383-1.668c2.802.15 5.54.955 8.022 2.389Z" fill="#212121"/>
</svg>
